X: 1728
T: THE QUEEN OF MAY
M:2/4
L:1/16
B:O'NEILL'S 1728
N:"collected by F. O'Neill"
Z:Transcribed by A. LEE WORMAN
K:G
(Bc)|dBcA Ggfe|edce d2(cB)|Aced cBAG|FAGE D2(Bc)|
dBcA Ggfe|edce dgfe|dBcA BGAF|G2GG G2:|
(cB)|ADFA GBdg|edce dgdB|ADFA GBdg|edce dgba|
gbfa egdf|ceBd AcGB|A2(cB) ADFA|G2GG G2:|


